images/other/amazon-color-svgrepo-com.svg

<?xml version="1.0" encoding="UTF-8" standalone="no"?>
<!-- Uploaded to: SVG Repo, www.svgrepo.com, Generator: SVG Repo Mixer Tools -->
<svg width="800px" height="800px" viewBox="0 0 48 48" version="1.1" xmlns="http://www.w3.org/2000/svg" xmlns:xlink="http://www.w3.org/1999/xlink">
    
    <title>Amazon-color</title>
    <desc>Created with Sketch.</desc>
    <defs>

</defs>
    <g id="Icons" stroke="none" stroke-width="1" fill="none" fill-rule="evenodd">
        <g id="Color-" transform="translate(-601.000000, -560.000000)">
            <g id="Amazon" transform="translate(601.000000, 560.000000)">
                <path d="M25.4026553,25.9595294 C24.660417,27.4418824 23.3876054,28.3962353 22.0103725,28.7181176 C21.8015298,28.7181176 21.4826213,28.8225882 21.1637129,28.8225882 C18.835399,28.8225882 17.458166,27.0211765 17.458166,24.3727059 C17.458166,20.9788235 19.4703937,19.392 22.0103725,18.6465882 C23.3876054,18.3303529 24.9793255,18.2230588 26.5682233,18.2230588 L26.5682233,19.4964706 C26.5682233,21.9331765 26.6726447,23.8390588 25.4026553,25.9595294 L25.4026553,25.9595294 Z M26.5682233,13.3524706 C25.1909904,13.4569412 23.5992703,13.5614118 22.0103725,13.7703529 C19.574815,14.0922353 17.1392576,14.5157647 15.1298521,15.4701176 C11.2098182,17.0597647 8.55977364,20.4508235 8.55977364,25.4287059 C8.55977364,31.6856471 12.5842289,34.8621176 17.6726531,34.8621176 C19.3659723,34.8621176 20.7432053,34.6475294 22.0103725,34.3341176 C24.0282445,33.696 25.7187415,32.5298824 27.7309692,30.4094118 C28.8965372,31.9990588 29.2182679,32.7444706 31.2276733,34.4385882 C31.7582467,34.6475294 32.28882,34.6475294 32.7093276,34.3341176 C33.9821392,33.2724706 36.208854,31.3637647 37.3715998,30.3049412 C37.9021732,29.8814118 37.7977518,29.2432941 37.4760212,28.7181176 C36.3132753,27.2329412 35.1448851,25.9595294 35.1448851,23.0992941 L35.1448851,13.5614118 C35.1448851,9.53505882 35.4666157,5.82494118 32.5004849,3.072 C30.0649275,0.849882353 26.2493149,0 23.2831841,0 L22.0103725,0 C16.6115064,0.313411765 10.8937319,2.64564706 9.61809814,9.32329412 C9.40643324,10.1731765 10.0442501,10.4894118 10.4675799,10.5938824 L16.3998415,11.3364706 C17.0348362,11.2291765 17.3537447,10.6983529 17.458166,10.1731765 C17.9859172,7.84094118 19.8937235,6.67482353 22.0103725,6.46023529 L22.4365245,6.46023529 C23.7093361,6.46023529 25.086569,6.99105882 25.8259851,8.05270588 C26.6726447,9.32329412 26.5682233,11.0202353 26.5682233,12.5054118 L26.5682233,13.3524706 L26.5682233,13.3524706 Z" fill="#343B45">

</path>
                <path d="M47.9943556,35.9463529 L47.9943556,35.9435294 C47.971778,35.4437647 47.8673567,35.0625882 47.658514,34.7463529 L47.6359364,34.7152941 L47.6105366,34.6842353 C47.3988717,34.4527059 47.1956734,34.3651765 46.9755419,34.2691765 C46.3179696,34.0150588 45.3612442,33.8795294 44.2097872,33.8767059 C43.382883,33.8767059 42.4713128,33.9557647 41.5540982,34.1562353 L41.551276,34.0941176 L40.6284171,34.4018824 L40.6114839,34.4103529 L40.0893771,34.5797647 L40.0893771,34.6023529 C39.47696,34.8564706 38.9209869,35.1727059 38.4045245,35.5482353 C38.0827939,35.7882353 37.8175072,36.1072941 37.8033962,36.5957647 C37.7949296,36.8611765 37.9303952,37.1661176 38.1533489,37.3468235 C38.3763025,37.5275294 38.6359448,37.5896471 38.8645429,37.5896471 C38.9181647,37.5896471 38.9689643,37.5868235 39.0141194,37.5783529 L39.0592746,37.5755294 L39.093141,37.5698824 C39.5446928,37.4738824 40.2022651,37.4089412 40.9727253,37.3016471 C41.6331198,37.2282353 42.3330251,37.1745882 42.9397978,37.1745882 C43.368772,37.1717647 43.7554132,37.2028235 44.0206999,37.2592941 C44.1533432,37.2875294 44.2521202,37.3214118 44.3057419,37.3496471 C44.3254973,37.3552941 44.3396083,37.3637647 44.3480749,37.3694118 C44.3593637,37.4061176 44.3762969,37.5021176 44.3734747,37.6348235 C44.3791191,38.1430588 44.164632,39.0861176 43.8683012,40.0065882 C43.5804369,40.9270588 43.2304843,41.8503529 42.999064,42.4630588 C42.94262,42.6042353 42.9059314,42.7595294 42.9059314,42.9289412 C42.900287,43.1745882 43.0018862,43.4738824 43.2163733,43.6715294 C43.425216,43.8691765 43.696147,43.9482353 43.9219229,43.9482353 L43.9332117,43.9482353 C44.2718756,43.9454118 44.5597398,43.8098824 44.8080933,43.6150588 C47.1505182,41.5087059 47.9661336,38.1430588 48,36.2484706 L47.9943556,35.9463529 Z M41.0489247,38.8658824 C40.8090378,38.8630588 40.5635065,38.9195294 40.3349084,39.0268235 C40.0780883,39.1284706 39.8156239,39.2470588 39.5672704,39.3515294 L39.2032068,39.504 L38.7290774,39.6931765 L38.7290774,39.6988235 C33.5785648,41.7882353 28.16841,43.0136471 23.1618295,43.1209412 C22.9783866,43.1265882 22.7921215,43.1265882 22.614323,43.1265882 C14.7403887,43.1322353 8.31706456,39.4785882 1.83729642,35.8785882 C1.61152053,35.76 1.37727804,35.6978824 1.15150215,35.6978824 C0.860815683,35.6978824 0.561662624,35.808 0.344353327,36.0112941 C0.12704403,36.2174118 -0.00277710907,36.5138824 4.50895989e-05,36.816 C-0.00277710907,37.2084706 0.208887791,37.5698824 0.505218651,37.8042353 C6.58705678,43.0870588 13.25309,47.9943529 22.2192152,48 C22.3941915,48 22.57199,47.9943529 22.7497885,47.9915294 C28.453452,47.8644706 34.902176,45.936 39.9087564,42.7905882 L39.9398006,42.7708235 C40.5945507,42.3783529 41.2493008,41.9322353 41.8673623,41.4381176 C42.2511813,41.1529412 42.516468,40.7068235 42.516468,40.2437647 C42.4995348,39.4221176 41.8024517,38.8658824 41.0489247,38.8658824 Z" id="Fill-237" fill="#FF9A00">

</path>
            </g>
        </g>
    </g>
</svg>

<svg xmlns="http://www.w3.org/2000/svg" width="800" height="800" viewBox="0 0 48 48"><title>Amazon-color</title><g fill="none" fill-rule="evenodd"><path fill="#343b45" d="M25.403 25.96c-.743 1.482-2.015 2.436-3.393 2.758-.208 0-.527.105-.846.105-2.329 0-3.706-1.802-3.706-4.45 0-3.394 2.012-4.981 4.552-5.726 1.378-.317 2.97-.424 4.558-.424v1.273c0 2.437.105 4.343-1.165 6.464m1.165-12.608c-1.377.105-2.969.21-4.558.418-2.435.322-4.87.746-6.88 1.7-3.92 1.59-6.57 4.98-6.57 9.959 0 6.257 4.024 9.433 9.113 9.433 1.693 0 3.07-.214 4.337-.528 2.018-.638 3.709-1.804 5.721-3.925 1.166 1.59 1.487 2.335 3.497 4.03.53.209 1.06.209 1.481-.105 1.273-1.062 3.5-2.97 4.663-4.03.53-.423.426-1.06.104-1.586-1.163-1.485-2.331-2.758-2.331-5.619v-9.538c0-4.026.322-7.736-2.645-10.489C30.065.85 26.25 0 23.283 0H22.01C16.612.313 10.894 2.646 9.618 9.323c-.212.85.426 1.166.85 1.27l5.932.743c.635-.107.954-.638 1.058-1.163.528-2.332 2.436-3.498 4.552-3.713h.427c1.272 0 2.65.531 3.389 1.593.847 1.27.742 2.967.742 4.452z"/><path fill="#ff9a00" d="M47.994 35.946v-.002c-.022-.5-.127-.881-.335-1.198l-.023-.03-.025-.032c-.212-.231-.415-.319-.635-.415-.658-.254-1.615-.39-2.766-.392-.827 0-1.739.079-2.656.28l-.003-.063-.923.308-.017.008-.522.17v.022a8.2 8.2 0 0 0-1.684.946c-.322.24-.587.56-.602 1.048a.98.98 0 0 0 .35.75 1.12 1.12 0 0 0 .861.232l.045-.002.034-.006c.452-.096 1.11-.161 1.88-.268.66-.074 1.36-.127 1.967-.127.429-.003.815.028 1.08.084a1.2 1.2 0 0 1 .328.11 1 1 0 0 1 .025.266c.006.508-.208 1.451-.505 2.372-.288.92-.638 1.843-.869 2.456a1.3 1.3 0 0 0-.093.466c-.006.246.096.545.31.743.21.197.48.276.706.276h.011c.339-.003.627-.138.875-.333 2.343-2.106 3.158-5.472 3.192-7.367zm-6.945 2.92a1.65 1.65 0 0 0-.714.16c-.257.102-.52.221-.768.326l-.364.152-.474.19v.005c-5.15 2.09-10.56 3.315-15.567 3.422-.184.006-.37.006-.548.006-7.874.005-14.297-3.648-20.777-7.248a1.5 1.5 0 0 0-.685-.181 1.2 1.2 0 0 0-.808.313 1.1 1.1 0 0 0-.344.805c-.003.392.209.754.505.988C6.587 43.087 13.253 47.994 22.22 48c.175 0 .353-.006.53-.008 5.704-.128 12.153-2.056 17.16-5.201l.03-.02a17.5 17.5 0 0 0 1.928-1.333c.384-.285.65-.731.65-1.194-.017-.822-.715-1.378-1.468-1.378"/></g></svg>
